src/assets/icons/general/bucket.svg

<svg xmlns="http://www.w3.org/2000/svg" width="24" height="24" fill="currentColor" viewBox="0 0 640 640"><path d="M539.7 272c2.7 4.7 4.3 10.2 4.3 16 0 17.7-14.3 32-32 32h-5.1l-22.4 213c-2.6 24.4-23.2 43-47.8 43H203.1c-24.6 0-45.2-18.5-47.8-43l-22.2-213H128c-17.7 0-32-14.3-32-32 0-5.8 1.6-11.3 4.3-16zM320 48c79.5 0 144 64.5 144 144v32h-48v-32c0-53-43-96-96-96s-96 43-96 96v32h-48v-32c0-79.5 64.5-144 144-144"/></svg>

<svg xmlns="http://www.w3.org/2000/svg" height="24px" viewBox="0 0 640 640" width="24px" fill="currentColor">
    
        <path
            d="M539.7 272C542.4 276.7 544 282.2 544 288C544 305.7 529.7 320 512 320L506.9 320L484.5 533C481.9 557.4 461.3 576 436.7 576L203.1 576C178.5 576 157.9 557.5 155.3 533L133.1 320L128 320C110.3 320 96 305.7 96 288C96 282.2 97.6 276.7 100.3 272L539.7 272zM320 48C399.5 48 464 112.5 464 192L464 224L416 224L416 192C416 139 373 96 320 96C267 96 224 139 224 192L224 224L176 224L176 192C176 112.5 240.5 48 320 48z" />
    
</svg>
